outputs/icons/editor/font_size_decrease_round.svg

<svg width="1200" height="1200" viewBox="0 0 1200 1200" fill="none" xmlns="http://www.w3.org/2000/svg"><g clip-path="url(#clip0_238_233)"><path d="M130.493 950C154.493 950 175.993 935 183.493 912.5L233.993 771H516.495L565.995 912C573.995 935 595.495 950 619.495 950C658.995 950 685.995 910.5 671.995 874L459.493 308.5C446.493 273.5 412.493 250 374.993 250C337.493 250 303.493 273.5 290.493 308.5L77.993 874C63.993 910.5 91.493 950 130.493 950ZM371.993 380H377.993L479.493 669.5H270.493L371.993 380ZM749.995 600C749.995 572.5 772.495 550 799.995 550H1099.995C1127.495 550 1149.995 572.5 1149.995 600C1149.995 627.5 1127.495 650 1099.995 650H799.995C772.495 650 749.995 627.5 749.995 600Z" fill="#1D1E23"/></g><defs><clipPath id="clip0_238_233"><path width="24" fill="white" d="M0 0H1200V1200H0V0z"/></clipPath></defs></svg>

<svg xmlns="http://www.w3.org/2000/svg" width="1200" height="1200" fill="none"><g clip-path="url(#a)"><path fill="#000" d="M130.499 950c24 0 45.501-15 53-37.5L234 771h282.5L566 912c8 23 29.5 38 53.5 38 39.5 0 66.5-39.5 52.5-76L459.5 308.5c-13-35-47-58.5-84.5-58.5s-71.5 23.5-84.5 58.5L77.999 874c-14 36.5 13.5 76 52.5 76M372 380h6l101.5 289.5H270.499zm378 220c0-27.5 22.5-50 50-50h300c27.5 0 50 22.5 50 50s-22.5 50-50 50H800c-27.5 0-50-22.5-50-50"/></g><defs><clipPath id="a"><path fill="#fff" d="M0 0h1200v1200H0z"/></clipPath></defs></svg>
